X:18809
T:Wilson's Hornpipe,aka. BF12.15
M:2/2
L:1/8
Q:150
C:"T.Wilson,June 18, 1833"
S:MS12,J.Wilson,1833,Browne Coll.,Lakes
R:Hornpipe,Plain
O:England
A:Lakes
N:Untitled in MS.Note in Margin "T Wilson,June 18,1833. Hence our date
N:for the MS. CGP.
Z:vmp.Cherri Graebe.
K:G major
DF|G2GG GABc|dgfg edcB|gfed cBAG|F2A2A2(BA)|!
G2GG GABc|dgfg edcB|gfed cBAG|"Qu's"D2G2G2:|!
|:Bc|dBdg dBdg|eceg eceg|gfed cBAG|F2A2A2(Bc)|!
dBdg dBdg|eceg eceg|gfed cBAG|"Qu's"D2G2G2:||


